X:0285
T:Tit for Tat.
M:6/8
L:1/8
Q:3/8=120
I: || || DC
P:ABA % Aird uses a da capo
Z:Jack Campin * www.campin.me.uk * 2009
K:D Mixolydian
P:A
d2d A2A|BcB A2A|dcd e2f|gag f2e|\
d2d A2A|BcB A2A|dcd efg|f2e d3||
P:B
fga a3 |fga a3 |fga b2a|g2f e2d|\
fga a3 |fga a3 |fga b2a|g2f e3|]
<end>
<start>
